!!!COM:	de Orto, Marbrianus
!!!CDT:	~1460///-1529//
!!!OPR:	Missa [Ad fugam]
!!!ONM:	4
!!!OTL:	Sanctus
!!!AGN:	Mass; Sanctus
!!!SCT:	Ort1006d
!!!SCA:	Ort1006d
!!!voices-OPR:	4
!!!voices:	4
**kern	**kern	**kern	**kern
*staff4	*staff3	*staff2	*staff1
*Ivox	*Ivox	*Ivox	*Ivox
*I"Bassus	*I"Tenor	*I"Altus	*I"Discantus
*I'B	*I'T	*I'A	*I'D
*>[A,B,C,D,E]	*>[A,B,C,D,E]	*>[A,B,C,D,E]	*>[A,B,C,D,E]
*>A	*>A	*>A	*>A
*clefF4	*clefGv2	*clefGv2	*clefG2
*k[b-]	*k[b-e-]	*k[b-]	*k[b-]
*M3/1	*M3/1	*M3/1	*M3/1
*met(O)	*met(O)	*met(O)	*met(O)
!!section: Sanctus
!!!OMD: Sanctus
!	!LO:TX:Z=12:t=(Tenor flat signature is editorial.)	!	!
=1-	=1-	=1-	=1-
!	!	!	!LO:TX:X=-40:Z=8:t=Canon at the lower fifth (two breves)
1.G	0.r	2.G/	0g
.	.	4A/	.
.	.	2B-\	.
2C/	.	2c\	.
1G	.	1d	1b-
=2	=2	=2	=2
1F	0.r	2d\	1a
.	.	1c	.
1E-	.	.	0g
.	.	2B-\	.
1C	.	4c\	.
.	.	4B-\	.
.	.	4A/	.
.	.	4G/	.
=3	=3	=3	=3
1r	0c	2.F/	1a
.	.	4G/	.
1AA	.	4A/	2.cc\
.	.	4B-\	.
.	.	1c	.
.	.	.	4b-\
1C	1e-	.	1g
.	.	2c\	.
=4	=4	=4	=4
1D	1d	1A	2f/
.	.	.	1a
0AA	0c	2F/	.
.	.	2E/	4g/
.	.	.	4f/
.	.	1A	1e
=5	=5	=5	=5
2BB-/	1d	2F/	1d
2GG/	.	1B-	.
1D	2.f\	.	2r
.	.	1A	2d/
.	4e-\	.	.
2r	1c	.	2e/
[2E-i\	.	[2G/	[2g/
=6	=6	=6	=6
4E-\]	2B-\	4G/]	4g/]
4D\	.	4F/	4a/
1BB-	1d	2D/	1b-
.	.	2d\	.
2C/	4c\	2e-i\	1g
.	4B-\	.	.
1D	1A	1d	.
.	.	.	2f#i/
=7	=7	=7	=7
2.GG/	1G	2.B-\	0g
4AA/	.	4c\	.
2BB-/	2r	2d\	.
2.C/	2G/	2e-i\	.
.	2A/	2c\	1r
4D\	.	.	.
2E\	[2c\	2G/	.
=8	=8	=8	=8
2F\	4c\]	2A/	0.r
.	4d\	.	.
1G	1e-	1B-	.
2A\	1c	2c\	.
1G	.	2.d\	.
.	2B-\	.	.
.	.	4e\	.
=9	=9	=9	=9
0F	0c	2.f\	[0.a
.	.	4e\	.
.	.	2d\	.
.	.	2c\	.
2D\	1r	2.f\	.
2C/	.	.	.
.	.	4e\	.
=10	=10	=10	=10
2.F\	0.r	2c\	0a]
.	.	2.d\	.
4E\	.	.	.
2D\	.	.	.
.	.	4A/	.
2F\	.	1d	.
1E-i	.	.	1g
.	.	2c\	.
=11	=11	=11	=11
2D\	[0.d	1F	1f
2.BB-/	.	.	.
.	.	2B-\	2g/
4C/	.	.	.
2D\	.	2A/	2f/
1GG	.	2B-\	1g
.	.	2G/	.
=12	=12	=12	=12
1D	0d]	1A	2f/
.	.	.	2.d/
1r	.	2.G/	.
.	.	.	4c/
.	.	.	2B-/
.	.	4D/	.
1r	1c	1F	2A/
.	.	.	[2a/
=13	=13	=13	=13
1r	1B-	1G	2a/]
.	.	.	2g/
1r	2c\	2F/	2a/
.	2B-\	2G/	2.b-\
2r	1c	1F	.
.	.	.	4g/
2F\	.	.	2a/
=14	=14	=14	=14
2.G\	2B-\	2r	1d
.	2.G/	1B-	.
4F\	.	.	.
4E\	.	.	1g
4D\	4F/	.	.
2C/	2E-/	2c\	.
1D	2D/	1A	1f
.	[2d\	.	.
=15	=15	=15	=15
1A	2d\]	1r	1e
.	2c\	.	.
1G	2d\	1B-	2r
.	2.e-\	.	1g
2r	.	2c\	.
.	4c\	.	.
2D\	2d\	2A/	2f/
=16	=16	=16	=16
2C/	1G	2r	2g/
2BB-/	.	2D/	2d/
1AA	1c	2E/	1r
.	.	2F/	.
1GG	1B-	1G	2r
.	.	.	[2g/
=17	=17	=17	=17
2r	1A	1D	2g/]
2D\	.	.	2f/
1C	2r	1r	2g/
.	1c	.	2e/
1G	.	1r	1d
.	2B-\	.	.
=18	=18	=18	=18
2A\	2c\	2r	2c/
1B-	2G/	2B-\	1d
.	1r	1d	.
2BB-/	.	.	2f/
1C	2r	1G	1e
.	[2c\	.	.
=19	=19	=19	=19
1GG	2c\]	1.G	1d
.	2B-\	.	.
2C/	2c\	.	2r
2D\	2A/	2F/	2f/
2E-i\	1G	4B-\	2g/
.	.	4c\	.
[2D\	.	[2d\	[2a/
=20	=20	=20	=20
4D\]	2F/	2d\]	2a/]
4C/	.	.	.
4BB-/	1G	2d\	1b-
4AA/	.	.	.
1GG	.	0d	.
.	2B-\	.	1g
1D	1A	.	.
.	.	.	2f#i/
=21	=21	=21	=21
1E-	1G	2B-\	0g
.	.	2c\	.
1.E-i	2r	2B-\	.
.	2B-\	2.G/	.
.	2c\	.	1r
.	.	4A/	.
2D\	[2d\	[2B-\	.
=22	=22	=22	=22
1G	2d\]	2B-\]	1b-
.	1e-	2G/	.
1C	.	1G	2.cc\
.	1c	.	.
.	.	.	4b-\
1D	.	1F	2a/
.	2Bni\	.	4g/
.	.	.	4f/
=23	=23	=23	=23
2C/	0c	2G/	2e/
2.F\	.	4F/	1a
.	.	4G/	.
.	.	4A/	.
4E\	.	4B-\	.
2C/	.	2c\	2g/
2D\	1r	2A/	2f/
2E-i\	.	2G/	[2g/
=24	=24	=24	=24
1C	1e-	1.c	2g/]
.	.	.	2.cc\
1FF	2.f\	.	.
.	.	.	4b-\
.	.	2d\	2a/
.	4e-\	.	.
1GG	2d\	2G/	2b-\
.	4c\	[2d\l	4a/
.	4B-\	.	4g/
=25	=25	=25	=25
0.Dl	0.Al	0.d]	0.fl
!!LO:LB:i:g=z
=26||	=26||	=26||	=26||
*>B	*>B	*>B	*>B
*clefF4	*clefGv2	*clefGv2	*clefG2
*k[b-]	*k[b-e-]	*k[b-]	*k[b-]
*M3/1	*M3/1	*M3/1	*M3/1
*met(O)	*met(O)	*met(O)	*met(O)
!	!	!	!LO:TX:X=-40:Z=8:t=Canon at the lower fifth (one breve).
!!section: Pleni sunt celi
!!!OMD: Pleni sunt celi
0.r	0.r	0.r	1.d
.	.	.	1f
.	.	.	2g/
=27	=27	=27	=27
0.r	1.G	0.r	2e/
.	.	.	2d/
.	.	.	1g
.	1B-	.	.
.	.	.	2r
.	2c\	.	[2a/
=28	=28	=28	=28
0.r	2A/	0.r	2a/]
.	2G/	.	2b-\
.	1c	.	2a/
.	.	.	2g/
.	2r	.	2b-\
.	[2d\	.	2a/
=29	=29	=29	=29
0.r	2d\]	0.r	2r
.	2e-\	.	2g/
.	2d\	.	1a
.	2c\	.	.
.	2e-\	.	2g/
.	2d\	.	2f/
=30	=30	=30	=30
0.r	2r	0.r	1e
.	2c\	.	.
.	1d	.	2d/
.	.	.	4c/
.	.	.	4B-/
.	2c\	.	2A/
.	2B-\	.	[2G/
=31	=31	=31	=31
0.r	1A	0.r	2G/]
.	.	.	2c/
.	2G/	.	2B-/
.	4F/	.	1d
.	4E-/	.	.
.	2D/	.	.
.	[2C/	.	2e/
=32	=32	=32	=32
0.r	2C/]	0.r	2c/
.	2F/	.	2r
.	2E-/	.	2.g/
.	1G	.	.
.	.	.	4a/
.	.	.	2b-\
.	2A/	.	[2cc\
=33	=33	=33	=33
0.r	2F/	0.r	2cc\]
.	2r	.	2a/
.	2.c\	.	1g
.	4d\	.	.
.	2e-\	.	2r
.	[2f\	.	[2cc\
=34	=34	=34	=34
0.r	2f\]	0.r	2cc\]
.	2d\	.	1b-
.	1c	.	.
.	.	.	2a/
.	2r	.	2b-\
.	[2f\	.	2a/
=35	=35	=35	=35
0.r	2f\]	0.r	2r
.	1e-	.	1g
.	2d\	.	2.b-\
.	2e-\	.	.
.	.	.	4a/
.	2d\	.	[2f/
=36	=36	=36	=36
0.r	2r	0.r	4f/]
.	.	.	4g/
.	1c	.	2a/
.	.	.	1g
.	2.e-\	.	.
.	.	.	2r
.	4d\	.	.
.	[2B-\	.	2d/
=37	=37	=37	=37
0.r	4B-\]	0.r	1f
.	4c\	.	.
.	2d\	.	.
.	1c	.	2.e/
.	.	.	4d/
.	2r	.	1e
.	2G/	.	.
=38	=38	=38	=38
0.r	1B-	0.r	2d/
.	.	.	2g/
.	2.A/	.	2f/
.	.	.	1g
.	4G/	.	.
.	1A	.	.
.	.	.	2f#i/
=39	=39	=39	=39
0.r	0.Gl	0.r	0.gl
!!LO:LB:i:g=z
=40||	=40||	=40||	=40||
*>C	*>C	*>C	*>C
*clefF4	*clefGv2	*clefGv2	*clefG2
*k[b-]	*k[b-e-]	*k[b-]	*k[b-]
*M3/1	*M3/1	*M3/1	*M3/1
*met(O)	*met(O)	*met(O)	*met(O)
!!section: Gloria tua
!!!OMD: Gloria tua
1r	0.r	1G	0.r
1r	.	2G/	.
.	.	1B-	.
1D	.	.	.
.	.	2A/	.
=41	=41	=41	=41
2D\	0.r	2B-\	0.r
1F	.	2A/	.
.	.	1d	.
2G\	.	.	.
2E\	.	2r	.
2D\	.	[2f\	.
=42	=42	=42	=42
1G	0.r	2f\]	0.r
.	.	2e\	.
2r	.	2f\	.
1A	.	2e\	.
.	.	1f	.
2B-\	.	.	.
=43	=43	=43	=43
2A\	0.r	2r	0.r
2G\	.	1g	.
2B-\	.	.	.
2A\	.	2f\	.
2r	.	2g\	.
2G\	.	2e\	.
=44	=44	=44	=44
1A	0.r	2f\	0.r
.	.	1e	.
2G\	.	.	.
2F\	.	1d	.
1E	.	.	.
.	.	2c\	.
=45	=45	=45	=45
2D\	0.r	2B-\	0.r
4C/	.	4A/	.
4BB-/	.	4G/	.
2AA/	.	2F/	.
2GG/	.	1G	.
1AA	.	.	.
.	.	2F#i/	.
=46	=46	=46	=46
2r	0.r	1G	0.r
1GG	.	.	.
.	.	1r	.
1BB-	.	.	.
.	.	[1G	.
4AA/	.	.	.
4GG/	.	.	.
=47	=47	=47	=47
2C/	0.r	2G/]	0.r
2BB-/	.	1B-	.
1E-i	.	.	.
.	.	2c\	.
2r	.	2A/	.
[2E-i\	.	2G/	.
=48	=48	=48	=48
2E-\]	0.r	1c	0.r
4D\	.	.	.
4C/	.	.	.
2E-\	.	2r	.
2F\	.	1d	.
[1G	.	.	.
.	.	2e-i\	.
=49	=49	=49	=49
2G\]	0.r	2d\	0.r
2A\	.	2c\	.
1G	.	2e-i\	.
.	.	1d	.
2.F\	.	.	.
.	.	2c\	.
4E\	.	.	.
=50	=50	=50	=50
4D\	0.r	1d	0.r
4C/	.	.	.
2BB-/	.	.	.
2AA/	.	2c\	.
2GG/	.	2B-\	.
2.D\	.	2A/	.
.	.	[2d\	.
4E\	.	.	.
=51	=51	=51	=51
4F\	0.r	4d\]	0.r
4G\	.	4e\	.
2D\	.	2f\	.
2G\	.	4e\	.
.	.	4d\	.
2B-\	.	1g	.
1A	.	.	.
.	.	2f#i\	.
=52	=52	=52	=52
0.Gl	0.r	0.gl	0.r
!!LO:LB:i:g=z
=53||	=53||	=53||	=53||
*>D	*>D	*>D	*>D
*clefF4	*clefGv2	*clefGv2	*clefG2
*k[b-]	*k[b-e-]	*k[b-]	*k[b-]
*M3/1	*M3/1	*M3/1	*M3/1
*met(O)	*met(O)	*met(O)	*met(O)
!!section: Osanna
!!!OMD: Osanna
!	!	!	!LO:TX:X=-40:Z=8:t=Canon at the lower fifth (two breves)
0G	0.r	1G	0.r
.	.	1B-	.
1A	.	1c	.
=54	=54	=54	=54
1G	0.r	0d	0.r
1B-	.	.	.
1A	.	2.c\	.
.	.	4d\	.
=55	=55	=55	=55
2.G\	0.r	2e-\	0g
.	.	1d	.
4F\	.	.	.
1E	.	.	.
.	.	2c\	.
1D	.	1d	1a
=56	=56	=56	=56
2r	0.r	2B-\	1g
2C/	.	2c\	.
2.BB-/	.	2d\	1b-
.	.	1g	.
4C/	.	.	.
1D	.	.	1a
.	.	2f#i\	.
=57	=57	=57	=57
2r	0c	1g	1g
1C	.	.	.
.	.	1G	2r
4BB-/	.	.	1cc
4AA/	.	.	.
1GG	1d	2.G/	.
.	.	.	2b-\
.	.	4D/	.
=58	=58	=58	=58
0.r	1c	2F/	2a/
.	.	2E/	1g
.	1e-	1C	.
.	.	.	1cc
.	1d	2.G/	.
.	.	.	2b-\
.	.	4F/	.
=59	=59	=59	=59
1C	1c	2G/	1.cc
.	.	1A	.
1F	2r	.	.
.	1f	2A/	4b-\
.	.	.	4a/
1C	.	1c	1g
.	2e-\	.	.
=60	=60	=60	=60
1F	2d\	1A	0.r
.	1c	.	.
2E\	.	2G/	.
2D\	1f	2F/	.
1C	.	2.G/	.
.	2e-\	.	.
.	.	4A/	.
=61	=61	=61	=61
2BB-/	1.f	2B-\	0.r
2AA/	.	2c\	.
1BB-	.	2d\	.
.	4e-\	1B-	.
.	4d\	.	.
2r	1c	.	.
2F\	.	2A/	.
=62	=62	=62	=62
2G\	0.r	2B-\	0.r
2B-\	.	2d\	.
2A\	.	4c\	.
.	.	4B-\	.
2.c\	.	4A/	.
.	.	4G/	.
.	.	2F/	.
4B-\	.	.	.
4A\	.	2G/	.
4G\	.	.	.
=63	=63	=63	=63
1F	0.r	1A	2.c/
.	.	.	4d/
2.G\	.	1G	2e/
.	.	.	2d/
4F\	.	.	.
2E\	.	1r	2c/
2D\	.	.	[2d/
=64	=64	=64	=64
1E-	0.r	1g	2d/]
.	.	.	2c/
2.BB-/	.	2f\	2.d/
.	.	2.d\	.
4C/	.	.	4e/
1D	.	.	4f/
.	.	4e\	4g/
.	.	[2f\	[2a/
=65	=65	=65	=65
0.r	2.F/	4f\]	4a/]
.	.	4e\	4b-\
.	.	1c	1cc
.	4G/	.	.
.	2A/	.	.
.	2G/	1d	2b-\
.	2F/	.	2a/
.	[2G/	2B-\	2g/
=66	=66	=66	=66
1r	2G/]	1A	2r
.	2F/	.	2cc\
2r	2.G/	4G/	2b-\
.	.	4A/	.
1G	.	4B-\	2.dd\
.	4A/	4c\	.
.	4B-\	2.d\	.
.	4c\	.	4cc\
2G\	[2d\	.	2b-\
.	.	4e\	.
=67	=67	=67	=67
2F\	4d\]	1f	1a
.	4e-\	.	.
2D\	1f	.	.
1C	.	1g	1r
.	2e-\	.	.
[1F	2d\	2.f\	1a
.	2c\	.	.
.	.	4e\	.
=68	=68	=68	=68
1F]	2r	2d\	1a
.	2f\	1c	.
1C	2e-\	.	0g
.	2.g\	2.e-\	.
1C	.	.	.
.	4f\	4d\	.
.	2e-\	4c\	.
.	.	4B-\	.
=69	=69	=69	=69
2.D\	1d	4A/	2f/
.	.	4G/	.
.	.	4F/	1d
4C/	.	4E/	.
4BB-/	1r	2D/	.
4AA/	.	.	.
2GG/	.	2G/	2.B-/
2.BB-/	1d	2F/	.
.	.	.	4c/
.	.	[2D/	4d/
4C/	.	.	4e/
=70	=70	=70	=70
4D\	1d	2D/]	4f/
4E\	.	.	4g/
1F	.	2.D/	1a
.	0c	.	.
.	.	4E/	.
2F\	.	4F/	4g/
.	.	4G/	4f/
1C	.	2A/	1e
.	.	[2G/	.
=71	=71	=71	=71
1GG	2B-\	2G/]	1d
.	1G	1d	.
1G	.	.	1b-
.	2.E-/	1g	.
1C	.	.	2.cc\
.	4F/	.	.
.	4G/	[2g\	.
.	4A/	.	4b-\
=72	=72	=72	=72
1G	4B-\	2g\]	2g/
.	4c\	.	.
.	1d	2d\	2b-\
2F\	.	2f\	2a/
2G\	4c\	2e\	1g
.	4B-\	.	.
1D	1A	[1dl	.
.	.	.	2f#i/
=73	=73	=73	=73
0.GGl	0.Gl	0.d]	0.gl
!!LO:LB:i:g=z
!!LO:TX:rj:i:Y=40:t=fine
=74||	=74||	=74||	=74||
*>E	*>E	*>E	*>E
*clefF4	*clefGv2	*clefGv2	*clefG2
*k[b-]	*k[b-e-]	*k[b-]	*k[b-]
*M2/1	*M2/1	*M2/1	*M2/1
*met(C|)	*met(C|)	*met(C|)	*met(C|)
!!section: Benedictus
!!!OMD: Benedictus
!	!	!	!LO:TX:X=-40:Z=8:t=Canon at the lower fifth (one breve).
1.GG	0r	0r	0r
2AA/	.	.	.
=75	=75	=75	=75
1BB-	0r	1r	0r
1C	.	1G	.
=76	=76	=76	=76
2D\	0r	1B-	0r
1E-i	.	.	.
.	.	1c	.
4D\	.	.	.
4C/	.	.	.
=77	=77	=77	=77
1BB-	0r	1d	0r
1E-i	.	2B-\	.
.	.	[2c\	.
=78	=78	=78	=78
2F\	0r	2c\]	0r
2BB-/	.	2d\	.
2C/	.	2G/	.
2BB-/	.	[2d\	.
=79	=79	=79	=79
1GG	0r	2d\]	1r
.	.	4c\	.
.	.	4B-\	.
1D	.	2A/	1f
.	.	[2B-\	.
=80	=80	=80	=80
0r	1r	2B-\]	1g
.	.	4A/	.
.	.	4G/	.
.	1B-	1d	2f/
.	.	.	[2g/
=81	=81	=81	=81
2r	1c	0r	2g/]
2F\	.	.	2a/
2G\	2B-\	.	2b-\
2E\	[2c\	.	2g/
=82	=82	=82	=82
1F	2c\]	1r	1a
.	2d\	.	.
1C	2e-\	2r	1g
.	2c\	[2c\	.
=83	=83	=83	=83
2r	1d	2c\]	0r
2G\	.	2B-\	.
2A\	1c	2c\	.
2F\	.	2A/	.
=84	=84	=84	=84
2G\	0r	1G	0r
2E\	.	.	.
1D	.	2F/	.
.	.	[2f\	.
=85	=85	=85	=85
1G	0r	2f\]	0r
.	.	2e\	.
2F\	.	2f\	.
[2G\	.	2d\	.
=86	=86	=86	=86
2G\]	0r	1e	1r
2A\	.	.	.
2B-\	.	1d	1g
4A\	.	.	.
4G\	.	.	.
=87	=87	=87	=87
1F	1r	0r	1a
1r	1c	.	2g/
.	.	.	[2a/
=88	=88	=88	=88
2r	1d	0r	2a/]
2G\	.	.	2b-\
2A\	2c\	.	2cc\
2F\	[2d\	.	2a/
=89	=89	=89	=89
1G	2d\]	2r	1b-
.	2e-\	2G/	.
1D	2f\	2A/	1a
.	2d\	2F/	.
=90	=90	=90	=90
1C	1e-	2.G/	2r
.	.	.	2g/
.	.	4A/	.
2r	1d	1B-	2f/
2BB-/	.	.	2d/
=91	=91	=91	=91
2C/	2r	2G/	1e
2AA/	2c\	2A/	.
2BB-/	2B-\	2d\	2d/
2E-i\	2G/	2c\	[2g/
=92	=92	=92	=92
1D	1A	1d	2g/]
.	.	.	2f#i/
2E-i\	2G/	2B-\	1g
2C/	[2c\	2c\	.
=93	=93	=93	=93
1G	2c\]	1d	1r
.	2Bni\	.	.
1C	1c	1e-i	1g
=94	=94	=94	=94
1.F	1r	1c	1.a
.	1c	[1f	.
2F\	.	.	2a/
=95	=95	=95	=95
1D	1.d	2f\]	1a
.	.	2f\	.
1G	.	1B-	2r
.	2d\	.	[2b-\
=96	=96	=96	=96
0r	1d	2G/	2b-\]
.	.	2F/	2a/
.	2r	1c	2g/
.	[2e-\	.	[2cc\
=97	=97	=97	=97
1r	2e-\]	0r	2cc\]
.	2d\	.	2b-\
2.F\	2c\	.	1a
.	[2f\	.	.
4E\	.	.	.
=98	=98	=98	=98
2D\	2f\]	2r	0r
1C	2e-\	2.G/	.
.	1d	.	.
.	.	4A/	.
2BB-/	.	2B-\	.
=99	=99	=99	=99
1AA	0r	1c	0r
2r	.	1F	.
[2BB-/	.	.	.
=100	=100	=100	=100
2BB-/]	0r	2G/	0r
2AA/	.	2A/	.
2GG/	.	2D/	.
[2C/	.	[2E/	.
=101	=101	=101	=101
2C/]	0r	4E/]	0r
.	.	4F/	.
2BB-/	.	1G	.
1AA	.	.	.
.	.	[2c\	.
=102	=102	=102	=102
2GG/	0r	2c\]	0r
1G	.	2B-\	.
.	.	1A	.
2F#i\	.	.	.
=103	=103	=103	=103
2G\	0r	1r	0r
2C/	.	.	.
2BB-/	.	2.d\	.
[2E-i\	.	.	.
.	.	4c\	.
=104	=104	=104	=104
2E-\]	0r	2c\	0r
2D\	.	2B-\	.
1C	.	1e-i	.
=105	=105	=105	=105
2BB-/	0r	2.d\	0r
1F	.	.	.
.	.	4c\	.
.	.	2A/	.
2E\	.	[2B-\	.
=106	=106	=106	=106
2D\	0r	2B-\]	0r
2.G\	.	1e-i	.
4F\	.	.	.
2D\	.	[2d\	.
=107	=107	=107	=107
1E-i	0r	2d\]	1r
.	.	2c\	.
1D	.	2d\	2r
.	.	4c\	[2f/
.	.	4B-\	.
=108	=108	=108	=108
2r	1r	1A	2f/]
2C/	.	.	2e/
2BB-/	2r	2B-\	2d/
2GG/	[2B-\	[2d\	[2g/
=109	=109	=109	=109
1r	2B-\]	2d\]	2g/]
.	2A/	2c\	2f/
1C	2G/	1c	1e
.	[2c\	.	.
=110	=110	=110	=110
1G	2c\]	2r	2d/
.	2B-\	2G/	1g
1D	1A	1d	.
.	.	.	2f/
=111	=111	=111	=111
2G\	2G/	1r	2g/
2F\	1c	.	2a/
1G	.	2r	1d
.	2B-\	[2G/	.
=112	=112	=112	=112
2C/	2c\	4G/]	2e/
.	.	4A/	.
2BB-/	2d\	1B-	2f/
1E-	1G	.	1g
.	.	2c\	.
=113	=113	=113	=113
0Dl	0Al	0dl	0fl
!!LO:TX:i:Y=40:rj:t=Osanna ut supra
=||	=||	=||	=||
*-	*-	*-	*-
!!!RDF**kern: l=long note in original notation
!!!RDF**kern: i=editorial accidental
!!!ENC:	Jesse Rodin 8/8/2013
!!!END:	2013/08/09/
!!!EED:	Jesse Rodin
!!!EEV:	2013/08/11/
!!!ONB:	Translated from MusicXML and edited on 2013/08/11/ by Craig Sapp
!!muse2ps: T^@{OPR}^u^@{ONM}{. }@{OTL}^C^@{COM}^i2I150v85,85,85,150Q16
